www/src/components/thumbprint-www/featured/svg/color.svg

<svg width="100" height="100" viewBox="0 0 100 100" fill="none" xmlns="http://www.w3.org/2000/svg">
<rect width="100" height="100" fill="white"/>
<path d="M75.9045 22.546C64.1305 22.1484 14.6346 31.0283 8.11015 41.0348C-4.71378 60.7163 25.1337 77.3495 42.8322 79.3375C56.0311 80.8617 86.4036 73.3072 93.153 62.7043C98.4026 54.6196 92.4031 23.0762 75.9045 22.546Z" fill="#F4FAFC"/>
<path d="M63.0146 78.9682C67.6595 79.5555 67.5053 74.3718 67.5053 74.3718L69.1255 47.9839L66.5395 47.8056L63.9535 47.6272L59.6811 73.8322C59.6148 73.8277 58.3103 78.9108 63.0146 78.9682Z" fill="#6676E1"/>
<path d="M63.4951 49.6316L66.28 49.8237L69.0317 50.0134L76.8935 45.1488L77.1643 42.7311L67.152 42.0407L57.1066 41.348L56.8357 43.7657L63.4951 49.6316Z" fill="#3F4C9F"/>
<path d="M56.8448 43.7738L76.9026 45.1569L77.1735 42.7393L57.1157 41.3562L56.8448 43.7738Z" fill="#6676E1"/>
<path d="M73.3221 33.4883C70.463 33.9587 71.088 35.537 67.7522 37.8768C64.4163 40.2167 64.127 33.5551 60.1971 32.5499C59.5157 32.3694 58.8195 32.3214 58.1122 32.3727L57.1028 41.3811L77.1606 42.7642L78.1996 33.4909C76.9395 33.7044 75.3633 33.1618 73.3221 33.4883Z" fill="#C5E4F2"/>
<path d="M75.7709 25.6473L74.279 25.5444L70.9969 25.3181L65.0624 24.9088L63.239 24.7831L60.653 24.6048L58.9954 24.4905L58.4573 29.2927L58.2347 31.2799L58.1122 32.3728C58.8196 32.3214 59.5158 32.3694 60.1972 32.5499C64.1271 33.5552 64.4495 40.219 67.7522 37.8769C71.0881 35.537 70.4631 33.9587 73.3222 33.4884C75.3633 33.1619 76.9359 33.7375 78.1997 33.4909L79.0531 25.8736L75.7709 25.6473Z" fill="#2DB783"/>
<path d="M75.1096 37.5279C75.3756 37.1205 75.1812 36.5356 74.6755 36.2214C74.1699 35.9072 73.5443 35.9828 73.2784 36.3901C73.0125 36.7975 73.2068 37.3825 73.7125 37.6966C74.2182 38.0108 74.8437 37.9353 75.1096 37.5279Z" fill="#2DB783"/>
<path d="M81.7489 22.2092C81.9844 21.4043 81.3701 20.597 80.3768 20.4061C79.3835 20.2153 78.3874 20.7131 78.1519 21.5181C77.9164 22.323 78.5307 23.1303 79.524 23.3212C80.5172 23.512 81.5134 23.0142 81.7489 22.2092Z" fill="#2DB783"/>
<path d="M87.9681 26.0349C88.3509 24.7266 87.3524 23.4146 85.738 23.1044C84.1236 22.7942 82.5046 23.6033 82.1218 24.9116C81.739 26.2199 82.7374 27.532 84.3519 27.8422C85.9663 28.1524 87.5853 27.3433 87.9681 26.0349Z" fill="#2DB783"/>
<path d="M27.6333 24.3574L12.6897 30.4237L35.715 81.6536L50.6586 75.5874L27.6333 24.3574Z" fill="#F3F8F9"/>
<path d="M27.7943 24.693L12.8507 30.7592L17.1402 40.3031L32.0839 34.2369L27.7943 24.693Z" fill="#6676E1" fill-opacity="0.2"/>
<path d="M32.3753 34.8965L17.4316 40.9627L21.7212 50.5066L36.6648 44.4404L32.3753 34.8965Z" fill="#6676E1" fill-opacity="0.6"/>
<path d="M36.9562 45.1001L22.0126 51.1663L26.3021 60.7103L41.2457 54.644L36.9562 45.1001Z" fill="#6676E1"/>
<path d="M41.5371 55.3037L26.5935 61.37L30.883 70.9139L45.8266 64.8477L41.5371 55.3037Z" fill="#3F4C9F"/>
<path d="M46.1181 65.5072L31.1744 71.5735L35.464 81.1174L50.4076 75.0512L46.1181 65.5072Z" fill="#0A155E"/>
<path d="M52.4401 18.0986H36.4591V73.4995H52.4401V18.0986Z" fill="#F3F8F9"/>
<path d="M52.2459 18H35.9957V28.3784H52.2459V18Z" fill="#FEBE14" fill-opacity="0.2"/>
<path d="M52.2459 29.0868H35.9957V39.4652H52.2459V29.0868Z" fill="#FEBE14" fill-opacity="0.6"/>
<path d="M52.2459 40.209H35.9957V50.5874H52.2459V40.209Z" fill="#FEBE14"/>
<path d="M52.2459 51.2957H35.9957V61.6741H52.2459V51.2957Z" fill="#CA9814"/>
<path d="M52.2459 62.4178H35.9957V72.7962H52.2459V62.4178Z" fill="#644B07"/>
</svg>

<svg width="100" height="100" fill="none" xmlns="http://www.w3.org/2000/svg"><path fill="#fff" d="M0 0H100V100H0z"/><path d="M75.904 22.546c-11.773-.398-61.27 8.482-67.794 18.489C-4.714 60.716 25.134 77.35 42.832 79.338c13.2 1.524 43.572-6.03 50.321-16.634 5.25-8.084-.75-39.628-17.249-40.158z" fill="#F4FAFC"/><path d="M63.015 78.968c4.644.587 4.49-4.596 4.49-4.596l1.62-26.388-2.585-.178-2.587-.179-4.272 26.205c-.066-.004-1.37 5.079 3.334 5.136z" fill="#6676E1"/><path d="M63.495 49.632l2.785.192 2.752.19 7.862-4.865.27-2.418-10.012-.69-10.045-.693-.271 2.418 6.66 5.866z" fill="#3F4C9F"/><path d="M56.845 43.774l20.058 1.383.27-2.418-20.057-1.383-.271 2.418z" fill="#6676E1"/><path d="M73.322 33.488c-2.859.47-2.234 2.049-5.57 4.389-3.336 2.34-3.625-4.322-7.555-5.327a6.303 6.303 0 0 0-2.085-.177l-1.01 9.008 20.059 1.383 1.039-9.273c-1.26.213-2.837-.33-4.878-.003z" fill="#C5E4F2"/><path d="M75.77 25.647l-1.491-.103-3.282-.226-5.935-.41-1.823-.125-2.586-.178-1.658-.114-.538 4.802-.222 1.987-.123 1.093a6.3 6.3 0 0 1 2.085.177c3.93 1.005 4.252 7.669 7.555 5.327 3.336-2.34 2.711-3.918 5.57-4.389 2.041-.326 3.614.25 4.878.003l.853-7.617-3.282-.227zm-.66 11.88c.266-.407.071-.991-.434-1.306-.506-.314-1.132-.238-1.398.17-.266.407-.071.992.434 1.306.506.314 1.132.238 1.398-.17zm6.639-15.318c.235-.805-.379-1.612-1.372-1.803-.993-.19-1.99.307-2.225 1.112-.236.805.379 1.612 1.372 1.803.993.191 1.99-.307 2.225-1.112zm6.22 3.826c.382-1.308-.617-2.62-2.231-2.93-1.614-.31-3.233.498-3.616 1.807-.383 1.308.615 2.62 2.23 2.93 1.614.31 3.233-.499 3.616-1.807z" fill="#2DB783"/><path d="M27.633 24.357L12.69 30.424l23.025 51.23 14.944-6.067-23.026-51.23z" fill="#F3F8F9"/><path d="M27.794 24.693l-14.943 6.066 4.29 9.544 14.943-6.066-4.29-9.544z" fill="#6676E1" fill-opacity=".2"/><path d="M32.375 34.897l-14.943 6.066 4.29 9.544 14.943-6.067-4.29-9.543z" fill="#6676E1" fill-opacity=".6"/><path d="M36.956 45.1l-14.943 6.066 4.29 9.544 14.943-6.066-4.29-9.544z" fill="#6676E1"/><path d="M41.537 55.304L26.593 61.37l4.29 9.544 14.944-6.066-4.29-9.544z" fill="#3F4C9F"/><path d="M46.118 65.507l-14.944 6.066 4.29 9.544 14.944-6.066-4.29-9.544z" fill="#0A155E"/><path d="M52.44 18.099H36.46v55.4h15.98V18.1z" fill="#F3F8F9"/><path d="M52.246 18h-16.25v10.378h16.25V18z" fill="#FEBE14" fill-opacity=".2"/><path d="M52.246 29.087h-16.25v10.378h16.25V29.087z" fill="#FEBE14" fill-opacity=".6"/><path d="M52.246 40.209h-16.25v10.378h16.25V40.21z" fill="#FEBE14"/><path d="M52.246 51.296h-16.25v10.378h16.25V51.296z" fill="#CA9814"/><path d="M52.246 62.418h-16.25v10.378h16.25V62.418z" fill="#644B07"/></svg>
